symbols/web/credit_score/materialsymbolsrounded/credit_score_wght700gradN25fill1_48px.svg

<svg xmlns="http://www.w3.org/2000/svg" height="48" width="48"><path d="m28.75 43.35-5.7-5.85q-.7-.65-.7-1.5t.75-1.55q.55-.65 1.45-.65.9 0 1.6.65l4.25 4.35 9.95-9.9q.65-.7 1.5-.675.85.025 1.55.675.65.65.65 1.525 0 .875-.65 1.575L32 43.35q-.7.7-1.625.7t-1.625-.7ZM7.6 41q-1.95 0-3.275-1.325T3 36.45V11.5q0-1.9 1.325-3.25T7.6 6.9h32.85q1.9 0 3.25 1.35t1.35 3.25v11.25h-2.6L30.4 34.9l-2.65-2.75q-1.5-1.5-3.55-1.5t-3.45 1.45q-1.5 1.5-1.525 3.525Q19.2 37.65 20.7 39.2l1.8 1.8Zm0-18.25h32.85V16H7.6Z"/></svg>

<svg xmlns="http://www.w3.org/2000/svg" height="48" width="48"><path d="M28.75 43.35 23.05 37.5Q22.35 36.85 22.35 36Q22.35 35.15 23.1 34.45Q23.65 33.8 24.55 33.8Q25.45 33.8 26.15 34.45L30.4 38.8L40.35 28.9Q41 28.2 41.85 28.225Q42.7 28.25 43.4 28.9Q44.05 29.55 44.05 30.425Q44.05 31.3 43.4 32L32 43.35Q31.3 44.05 30.375 44.05Q29.45 44.05 28.75 43.35ZM7.6 41Q5.65 41 4.325 39.675Q3 38.35 3 36.45V11.5Q3 9.6 4.325 8.25Q5.65 6.9 7.6 6.9H40.45Q42.35 6.9 43.7 8.25Q45.05 9.6 45.05 11.5V22.75H42.45L30.4 34.9L27.75 32.15Q26.25 30.65 24.2 30.65Q22.15 30.65 20.75 32.1Q19.25 33.6 19.225 35.625Q19.2 37.65 20.7 39.2L22.5 41ZM7.6 22.75H40.45V16H7.6Z"/></svg>
